!!!!SEGMENT: pl-kk--kk-i-6--027-005_anonim--officium-octavi-toni-agnus-dei.krn
!!!cenid: 16xx:998
!!!COM: Anonim
!!!COM-rism: pe30004985
!!!CDT:
!!!CNT:
!!!OTL: Officium Octavi Toni – Agnus Dei
!!!PDT:
!!!AGN: Sacred
!!!SMS-siglum: PL-Kk
!!!SMS-shelfmark: Kk.I.6
!!!NIFC-rismID: 1001136049
!!!URL-scan: http://repozytorium.nifc.pl/skany/pl-kk-nut--i-6
!!!ONB-nifc: UWAGA: C (skan 0033-0037, s. 62-71), T (skan 0136-0141, s. 76-86), B (skan 0246-0251, s. 75-84) Części Officium: 1. Kyrie, 2. Et in terra, 3. Patrem, 4. Sanctus, 5. Agnus Dei
!!!SMS-variant:
!!!SMS-altvar:
**kern	**text	**kern	**text	**kern	**text
*part3	*part3	*part2	*part2	*part1	*part1
*staff3	*staff3	*staff2	*staff2	*staff1	*staff1
*I"Baſsus.	*	*I"Tenor.	*	*I"Cantus.	*
*I'B	*	*I'T	*	*I'S	*
*clefF3	*	*clefC3	*	*clefC4	*
*k[]	*	*k[]	*	*k[]	*
*M2/1	*	*M2/1	*	*M2/1	*
*met(C|)	*	*met(C|)	*	*met(C|)	*
=1-	=1-	=1-	=1-	=1-	=1-
1r	.	00r	.	1.G/	A-
1.C/	A-	.	.	.	.
!	!	!	!	!LO:TX:t=P:problem:kreska pseudotaktowa	!
.	.	.	.	2G/	-Gnus
=2-	=2-	=2-	=2-	=2-	=2-
.	.	.	.	1c\	De-
2C/	-Gnus	.	.	.	.
!	!	!	!	!LO:TX:t=P:problem:kreska pseudotaktowa	!
1F\	De-	.	.	1A\	-i
=3-	=3-	=3-	=3-	=3-	=3-
*	*	*	*	*	*ij
1D/	-i	0r	.	2.d\	A-
.	.	.	.	4c\	.
2.G\	A-	.	.	4B\	.
.	.	.	.	4A/	-Gnus
.	.	.	.	1B\	De-
4F/	.	.	.	.	.
=4-	=4-	=4-	=4-	=4-	=4-
4E/	.	1.G/	A-	.	.
4D/	.	.	.	.	.
!	!	!	!	!LO:TX:t=P:problem:kreska pseudotaktowa	!
1E/	.	.	.	2G,/	-i
*	*	*	*	*	*Xij
!	!	!	!	!LO:SIC:v:t=custos G	!
.	.	.	.	1c\	A-
1C/	-gnus	2G/	-Gnus	.	.
!	!	!	!	!LO:PB:g=original	!
=5-	=5-	=5-	=5-	=5-	=5-
.	.	1c\	De-	2G/	-gnus
2.F/	De-	.	.	2.A/	De-
.	.	1A/	-i	.	.
4E/	.	.	.	4G/	.
4D/	.	.	.	4F/	.
!LO:LB:g=original	!	!	!	!LO:TX:t=P:problem:kreska pseudotaktowa	!
4C/	.	.	.	4E/	.
=6-	=6-	=6-	=6-	=6-	=6-
1D/	.	2.d\	qui	2F/	.
!	!	!	!	!LO:TX:t=P:problem:kreska pseudotaktowa	!
.	.	.	.	2A/	.
.	.	4c/	.	.	.
2E/	-i	4B/	.	2.G/	.
.	.	4A/	.	.	.
1G\	A-	1B/	tol-	.	.
.	.	.	.	4A/	.
=7-	=7-	=7-	=7-	=7-	=7-
.	.	.	.	2B\	.
!	!	!	!	!LO:TX:t=P:problem:kreska pseudotaktowa	!
2C/	-gnus	2G/	-lis	2.c\	.
2.F/	De-	2A/	qui	.	.
.	.	.	.	4B\	.
.	.	2.c/	tol-	4A/	.
4E/	.	.	.	4G/	.
=8-	=8-	=8-	=8-	=8-	=8-
!	!	!	!	!LO:TX:t=P:problem:kreska pseudotaktowa	!
1D/	.	.	.	1F/	.
.	.	8B/L	.	.	.
.	.	8A/J	.	.	.
!	!	!LO:SIC:v:t=custos c	!	!	!
.	.	2B/	.	.	.
!	!	!LO:LB:g=original	!	!	!
1C/	-i	2c/	-lis	2G,/	-i
.	.	2G/	pec-	1c\	A-
=9-	=9-	=9-	=9-	=9-	=9-
0r	.	1A/	-ca-	.	.
!	!	!	!	!LO:TX:t=P:problem:kreska pseudotaktowa	!
.	.	.	.	2c\	-gnus
.	.	2B/	-ta	1G/	De-
.	.	2B/	pec-	.	.
=10-	=10-	=10-	=10-	=10-	=10-
!	!	!	!	!LO:SIC:v:t=custos G	!
1C/	Qui	2c/	-ca-	1G/	-i
.	.	2c/	-ta	.	.
!	!	!	!	!LO:LB:g=original	!
1D/	to-	1A/	mun-	1r	.
=11-	=11-	=11-	=11-	=11-	=11-
2E/	-llis	1G/	-di	2r	.
!	!	!	!	!LO:TX:t=P:problem:kreska pseudotaktowa	!
2E/	pec-	.	.	2G/	qui
2F/	-ca-	1r	.	1A\	tol-
2F/	-ta	.	.	.	.
=12-	=12-	=12-	=12-	=12-	=12-
*	*	*	*ij	*	*
1G\	mun-	1d\	A-	2B\	-lis
!	!	!	!	!LO:TX:t=P:problem:kreska pseudotaktowa	!
.	.	.	.	2B\	pec-
1C/	-di	1e\	-Gnus	2c\	-ca-
!	!	!	!	!LO:TX:t=P:problem:kreska pseudotaktowa	!
.	.	.	.	2c\	-ta
=13-	=13-	=13-	=13-	=13-	=13-
1r	.	2f\	De-	1A\	mun-
.	.	2f\	-i	.	.
2r	.	2g\	qui	2G,/	-di
!LO:SIC:v:t=custos A	!	!	!	!LO:TX:t=P:problem:kreska pseudotaktowa	!
*	*	*	*	*	*ij
2G\	qui	2g\	tol-	2B\	A-
!LO:LB:g=original	!	!	!	!	!
=14-	=14-	=14-	=14-	=14-	=14-
1A\	to-	1e\	-lis	1c\	-gnus
2B\	-llis	2d\	pec-	1d\	De-
2B\	pec-	1g\	-ca-	.	.
=15-	=15-	=15-	=15-	=15-	=15-
2c\	-ca-	.	.	1e\	-i
2c\	-ta	2.e\	.	.	.
1A\	mun-	.	.	1c\	qui
.	.	4d\	.	.	.
!	!	!LO:SIC:v:t=custos B	!	!	!
.	.	2c/	ta	.	.
!	!	!LO:LB:g=original	!	!	!
=16-	=16-	=16-	=16-	=16-	=16-
2G\	-di	1B/	mun-	2d\	tol-
2G\	pec-	.	.	2.e\	-lis
2D/	-ca-	1A/	-di	.	.
*	*	*	*Xij	*	*
.	.	.	.	4d\	pec-
2F/	-ta	.	.	1d\	-ca-
=17-	=17-	=17-	=17-	=17-	=17-
1E/	mun-	1r	.	.	.
!	!	!	!	!LO:SIC:v:t=custos d	!
.	.	.	.	2c\	-ta
!	!	!	!	!LO:LB:g=original	!
1D/	-di	2.d\	Mi-	2d\	mun-
!	!	!	!	!LO:TX:t=P:problem:kreska pseudotaktowa	!
.	.	.	.	2B-X\	.
.	.	4d\	-ſe-	.	.
=18-	=18-	=18-	=18-	=18-	=18-
1r	.	2c/	-re-	1A\	-di
*	*	*	*	*	*Xij
.	.	2A/	-re	.	.
2.G\	Mi-	1B/	no-	0r	.
4G\	-ſe-	.	.	.	.
=19-	=19-	=19-	=19-	=19-	=19-
2F/	-re-	2A,/	-bis	.	.
*	*	*	*ij	*	*
2D/	-re	2d\	Mi-	.	.
1E/	no-	2B/	-ſe-	1r	.
.	.	2G/	-re-	.	.
=20-	=20-	=20-	=20-	=20-	=20-
!LO:SIC:v:t=custos G	!	!	!	!	!
1D/	-bis	2A/	-re	2.d\	Mi-
.	.	2.A/	no-	.	.
.	.	.	.	4d\	-ſe-
!LO:LB:g=original	!	!	!	!	!
1r	.	.	.	2c\	-re-
.	.	4B/	.	.	.
.	.	2c/	.	2A/	-re
=21-	=21-	=21-	=21-	=21-	=21-
2.G\	Mi-	1G/	-bis	1B-X\	no-
*	*	*	*Xij	*	*
4G\	-ſe-	.	.	.	.
2F/	-re-	1r	.	1A\	-bis
2D/	-re	.	.	.	.
=22-	=22-	=22-	=22-	=22-	=22-
1E/	no-	2.g\	Mi-	1r	.
!	!	!LO:SIC:v:t=custos f	!	!	!
.	.	4g\	-ſe-	.	.
!	!	!LO:LB:g=original	!	!	!
1D/	-bis	2f\	-re-	2.d\	Mi-
.	.	2d\	-re	.	.
.	.	.	.	4d\	-se-
=23-	=23-	=23-	=23-	=23-	=23-
1r	.	1e\	no-	2c\	-re-
.	.	.	.	2A/	-re
*	*ij	*	*	*	*
2.d\	Mi-	1d\	-bis	1B-X\	no-
4d\	-ſe-	.	.	.	.
=24-	=24-	=24-	=24-	=24-	=24-
!	!	!	!	!LO:SIC:v:t=custos e	!
2c\	-re-	1r	.	1A\	-bis
2A\	-re	.	.	.	.
!	!	!	!	!LO:LB:g=original	!
1B-X\	no-	2.d\	Mi-	1r	.
.	.	4d\	-ſe-	.	.
=25-	=25-	=25-	=25-	=25-	=25-
*	*	*	*	*	*ij
1A\	-bis	2c/	-re-	2.e\	Mi-
*	*Xij	*	*	*	*
.	.	2A/	-re	.	.
.	.	.	.	4c\	-se-
1r	.	1B-X/	no-	2d\	-re-
!	!	!	!	!LO:TX:t=P:problem:kreska pseudotaktowa	!
.	.	.	.	2d\	-re
=26-	=26-	=26-	=26-	=26-	=26-
2.A\	Mi-	2A/	-bis	2c\	no-
*	*	*	*ij	*	*
.	.	1A/	Mi-	2.e\	.
4A\	-se-	.	.	.	.
2D/	-re-	.	.	.	.
.	.	.	.	4d\	.
!LO:SIC:v:t=custos E	!	!	!	!	!
2F/	-re	2A/	-ſe-	1d\	-bis
!LO:LB:g=original	!	!	!	!	!
=27-	=27-	=27-	=27-	=27-	=27-
1E/	no-	2B/	-re-	.	.
!	!	!	!	!LO:TX:t=P:problem:kreska pseudotaktowa	!
.	.	2G/	-re	2c\	Mi-
1D/	-bis	1A/	no-	2d\	-se-
.	.	.	.	1d\	-re-
=28-	=28-	=28-	=28-	=28-	=28-
*	*ij	*	*	*	*
2.G\	Mi-	2B,/	-bis	.	.
!	!	!LO:SIC:v:t=custos e	!	!LO:TX:t=P:problem:kreska pseudotaktowa	!
.	.	2d\	Mi-	2B\	-re
4G\	-se-	.	.	.	.
!	!	!LO:LB:g=original	!	!	!
2C/	-re-	2e\	-ſe-	2c\	no-
!	!	!	!	!LO:TX:t=P:problem:kreska pseudotaktowa	!
2G\	-re	2B/	-re-	2d\	.
=29-	=29-	=29-	=29-	=29-	=29-
0C/	no-	1c\	-re	2.e\	.
.	.	.	.	4d\	.
.	.	1e\	no-	1.c\	.
=30-	=30-	=30-	=30-	=30-	=30-
0.G\;	-bis	0.d\;	-bis	.	.
.	.	.	.	4B\	.
.	.	.	.	4A/	.
.	.	.	.	0B\	-bis
==	==	==	==	==	==
*-	*-	*-	*-	*-	*-
!!!system-decoration: [(s1,s2,s3,s4)]
!!!EED: Leszek Kubiak
!!!EST: 2021-03-22
!!!ENC: Krzysztof Stępień
!!!END: 2021-03-08
